packages/foundations/assets/icons/functional/images/notification/cross_circle_24_filled.svg

<svg width="24" height="24" viewBox="0 0 24 24" fill="none" xmlns="http://www.w3.org/2000/svg">
<g clip-path="url(#clip0_2214_8062)">
<path fill-rule="evenodd" clip-rule="evenodd" d="M12 2C17.5312 2 22 6.4688 22 12C22 17.5312 17.5312 22 12 22C6.4688 22 2 17.5312 2 12C2 6.4688 6.4688 2 12 2ZM15.5 7.5C15.25 7.5 15.0312 7.5938 14.7812 7.8125L12 10.5938L9.2188 7.7812C9.0312 7.5938 8.7188 7.5 8.5 7.5C8.0312 7.5 7.5 7.875 7.5 8.5C7.5 8.7188 7.5625 8.9688 7.7812 9.2188L10.5938 12L7.7812 14.8125C7.5938 15 7.5 15.2812 7.5 15.5C7.5 15.9688 7.875 16.5 8.5 16.5C8.7188 16.5 8.9688 16.4062 9.1875 16.2188L12 13.4062L14.7812 16.2188C14.9688 16.4062 15.2812 16.5 15.5 16.5C15.9688 16.5 16.5 16.125 16.5 15.5C16.5 15.2812 16.4375 15.0312 16.2188 14.8125L13.4062 12L16.1875 9.2188C16.4062 9 16.5 8.75 16.5 8.5C16.5 7.9688 16.0625 7.5 15.5 7.5Z" fill="#1A1C1F"/>
</g>
<defs>
<clipPath id="clip0_2214_8062">
<rect width="24" height="24" fill="white"/>
</clipPath>
</defs>
</svg>

<svg xmlns="http://www.w3.org/2000/svg" width="24" height="24" fill="none"><g clip-path="url(#a)"><path fill="#1A1C1F" fill-rule="evenodd" d="M12 2a9.99 9.99 0 0 1 10 10 9.99 9.99 0 0 1-10 10A9.99 9.99 0 0 1 2 12 9.99 9.99 0 0 1 12 2m3.5 5.5c-.25 0-.469.094-.719.313L12 10.593 9.219 7.782c-.188-.187-.5-.281-.719-.281-.469 0-1 .375-1 1 0 .219.063.469.281.719L10.594 12 7.78 14.813a1.03 1.03 0 0 0-.281.687c0 .469.375 1 1 1 .219 0 .469-.094.688-.281L12 13.406l2.781 2.813c.188.187.5.281.719.281.469 0 1-.375 1-1a.94.94 0 0 0-.281-.687L13.406 12l2.781-2.781A1 1 0 0 0 16.5 8.5c0-.531-.437-1-1-1" clip-rule="evenodd"/></g><defs><clipPath id="a"><path fill="#fff" d="M0 0h24v24H0z"/></clipPath></defs></svg>
